bernoullicharts/1_3_x_1_1_3_x__bits.svg

<?xml version="1.0" encoding="utf-8" standalone="no"?>
<!DOCTYPE svg PUBLIC "-//W3C//DTD SVG 1.1//EN"
  "http://www.w3.org/Graphics/SVG/1.1/DTD/svg11.dtd">
<!-- Created with matplotlib (https://matplotlib.org/) -->
<svg height="345.6pt" version="1.1" viewBox="0 0 460.8 345.6" width="460.8pt" xmlns="http://www.w3.org/2000/svg" xmlns:xlink="http://www.w3.org/1999/xlink">
 <defs>
  <style type="text/css">
*{stroke-linecap:butt;stroke-linejoin:round;}
  </style>
 </defs>
 <g id="figure_1">
  <g id="patch_1">
   <path d="M 0 345.6 
L 460.8 345.6 
L 460.8 0 
L 0 0 
z
" style="fill:#ffffff;"/>
  </g>
  <g id="axes_1">
   <g id="patch_2">
    <path d="M 57.6 307.584 
L 414.72 307.584 
L 414.72 41.472 
L 57.6 41.472 
z
" style="fill:#ffffff;"/>
   </g>
   <g id="matplotlib.axis_1">
    <g id="xtick_1">
     <g id="line2d_1">
      <defs>
       <path d="M 0 0 
L 0 3.5 
" id="mfcfb5a2983" style="stroke:#000000;stroke-width:0.8;"/>
      </defs>
      <g>
       <use style="stroke:#000000;stroke-width:0.8;" x="73.800255" xlink:href="#mfcfb5a2983" y="307.584"/>
      </g>
     </g>
     <g id="text_1">
      <text style="font-family:DejaVu Sans;font-size:10px;font-style:normal;font-weight:normal;text-anchor:middle;" transform="rotate(-0, 73.800255, 322.182437)" x="73.800255" y="322.182437">0.0</text>
     </g>
    </g>
    <g id="xtick_2">
     <g id="line2d_2">
      <g>
       <use style="stroke:#000000;stroke-width:0.8;" x="138.744153" xlink:href="#mfcfb5a2983" y="307.584"/>
      </g>
     </g>
     <g id="text_2">
      <text style="font-family:DejaVu Sans;font-size:10px;font-style:normal;font-weight:normal;text-anchor:middle;" transform="rotate(-0, 138.744153, 322.182437)" x="138.744153" y="322.182437">0.2</text>
     </g>
    </g>
    <g id="xtick_3">
     <g id="line2d_3">
      <g>
       <use style="stroke:#000000;stroke-width:0.8;" x="203.688051" xlink:href="#mfcfb5a2983" y="307.584"/>
      </g>
     </g>
     <g id="text_3">
      <text style="font-family:DejaVu Sans;font-size:10px;font-style:normal;font-weight:normal;text-anchor:middle;" transform="rotate(-0, 203.688051, 322.182437)" x="203.688051" y="322.182437">0.4</text>
     </g>
    </g>
    <g id="xtick_4">
     <g id="line2d_4">
      <g>
       <use style="stroke:#000000;stroke-width:0.8;" x="268.631949" xlink:href="#mfcfb5a2983" y="307.584"/>
      </g>
     </g>
     <g id="text_4">
      <text style="font-family:DejaVu Sans;font-size:10px;font-style:normal;font-weight:normal;text-anchor:middle;" transform="rotate(-0, 268.631949, 322.182437)" x="268.631949" y="322.182437">0.6</text>
     </g>
    </g>
    <g id="xtick_5">
     <g id="line2d_5">
      <g>
       <use style="stroke:#000000;stroke-width:0.8;" x="333.575847" xlink:href="#mfcfb5a2983" y="307.584"/>
      </g>
     </g>
     <g id="text_5">
      <text style="font-family:DejaVu Sans;font-size:10px;font-style:normal;font-weight:normal;text-anchor:middle;" transform="rotate(-0, 333.575847, 322.182437)" x="333.575847" y="322.182437">0.8</text>
     </g>
    </g>
    <g id="xtick_6">
     <g id="line2d_6">
      <g>
       <use style="stroke:#000000;stroke-width:0.8;" x="398.519745" xlink:href="#mfcfb5a2983" y="307.584"/>
      </g>
     </g>
     <g id="text_6">
      <text style="font-family:DejaVu Sans;font-size:10px;font-style:normal;font-weight:normal;text-anchor:middle;" transform="rotate(-0, 398.519745, 322.182437)" x="398.519745" y="322.182437">1.0</text>
     </g>
    </g>
    <g id="text_7">
     <text style="font-family:DejaVu Sans;font-size:10px;font-style:normal;font-weight:normal;text-anchor:middle;" transform="rotate(-0, 236.16, 335.860562)" x="236.16" y="335.860562">Probability</text>
    </g>
   </g>
   <g id="matplotlib.axis_2">
    <g id="ytick_1">
     <g id="line2d_7">
      <defs>
       <path d="M 0 0 
L -3.5 0 
" id="md7c9fc3274" style="stroke:#000000;stroke-width:0.8;"/>
      </defs>
      <g>
       <use style="stroke:#000000;stroke-width:0.8;" x="57.6" xlink:href="#md7c9fc3274" y="264.146138"/>
      </g>
     </g>
     <g id="text_8">
      <text style="font-family:DejaVu Sans;font-size:10px;font-style:normal;font-weight:normal;text-anchor:end;" transform="rotate(-0, 50.6, 267.945356)" x="50.6" y="267.945356">2.0</text>
     </g>
    </g>
    <g id="ytick_2">
     <g id="line2d_8">
      <g>
       <use style="stroke:#000000;stroke-width:0.8;" x="57.6" xlink:href="#md7c9fc3274" y="215.174478"/>
      </g>
     </g>
     <g id="text_9">
      <text style="font-family:DejaVu Sans;font-size:10px;font-style:normal;font-weight:normal;text-anchor:end;" transform="rotate(-0, 50.6, 218.973696)" x="50.6" y="218.973696">2.2</text>
     </g>
    </g>
    <g id="ytick_3">
     <g id="line2d_9">
      <g>
       <use style="stroke:#000000;stroke-width:0.8;" x="57.6" xlink:href="#md7c9fc3274" y="166.202818"/>
      </g>
     </g>
     <g id="text_10">
      <text style="font-family:DejaVu Sans;font-size:10px;font-style:normal;font-weight:normal;text-anchor:end;" transform="rotate(-0, 50.6, 170.002037)" x="50.6" y="170.002037">2.4</text>
     </g>
    </g>
    <g id="ytick_4">
     <g id="line2d_10">
      <g>
       <use style="stroke:#000000;stroke-width:0.8;" x="57.6" xlink:href="#md7c9fc3274" y="117.231158"/>
      </g>
     </g>
     <g id="text_11">
      <text style="font-family:DejaVu Sans;font-size:10px;font-style:normal;font-weight:normal;text-anchor:end;" transform="rotate(-0, 50.6, 121.030377)" x="50.6" y="121.030377">2.6</text>
     </g>
    </g>
    <g id="ytick_5">
     <g id="line2d_11">
      <g>
       <use style="stroke:#000000;stroke-width:0.8;" x="57.6" xlink:href="#md7c9fc3274" y="68.259498"/>
      </g>
     </g>
     <g id="text_12">
      <text style="font-family:DejaVu Sans;font-size:10px;font-style:normal;font-weight:normal;text-anchor:end;" transform="rotate(-0, 50.6, 72.058717)" x="50.6" y="72.058717">2.8</text>
     </g>
    </g>
    <g id="text_13">
     <text style="font-family:DejaVu Sans;font-size:10px;font-style:normal;font-weight:normal;text-anchor:middle;" transform="rotate(-90, 28.617187, 174.528)" x="28.617187" y="174.528">Average Bits Consumed Per Call</text>
    </g>
   </g>
   <g id="line2d_12">
    <path clip-path="url(#p5475518e1c)" d="M 73.832727 85.399579 
L 77.112066 79.033263 
L 80.391405 116.741441 
L 83.670744 106.457393 
L 86.950083 53.568 
L 90.229421 161.795368 
L 93.50876 134.860955 
L 96.788099 82.461279 
L 100.067438 107.926543 
L 103.346777 111.354559 
L 106.626116 100.580794 
L 109.905455 136.819822 
L 113.184793 75.11553 
L 116.464132 132.902089 
L 119.743471 97.152777 
L 123.02281 159.836502 
L 126.302149 175.017717 
L 129.581488 184.322332 
L 132.860826 137.799255 
L 136.140165 138.288972 
L 139.419504 150.531887 
L 142.698843 185.791482 
L 145.978182 148.083304 
L 149.257521 127.02549 
L 152.53686 126.046057 
L 155.816198 157.387919 
L 159.095537 130.943223 
L 162.374876 134.371239 
L 165.654215 134.371239 
L 168.933554 208.318445 
L 172.212893 160.815935 
L 175.492231 177.956016 
L 178.77157 212.236178 
L 182.050909 152.001036 
L 185.330248 167.671968 
L 188.609587 167.182251 
L 191.888926 188.729781 
L 195.168264 195.096097 
L 198.447603 194.606381 
L 201.726942 166.202818 
L 205.006281 160.815935 
L 208.28562 208.808162 
L 211.564959 181.873749 
L 214.844298 171.5897 
L 218.123636 181.384032 
L 221.402975 178.935449 
L 224.682314 192.157798 
L 227.961653 172.569134 
L 231.240992 186.770915 
L 234.520331 149.552453 
L 237.799669 192.157798 
L 241.079008 185.301765 
L 244.358347 211.746462 
L 247.637686 175.99715 
L 250.917025 224.96881 
L 254.196364 216.643628 
L 257.475702 213.215611 
L 260.755041 204.400713 
L 264.03438 223.009943 
L 267.313719 203.910996 
L 270.593058 197.054964 
L 273.872397 216.153911 
L 277.151736 173.548567 
L 280.431074 201.95213 
L 283.710413 212.236178 
L 286.989752 187.750348 
L 290.269091 202.931563 
L 293.54843 212.725895 
L 296.827769 199.503547 
L 300.107107 224.479093 
L 303.386446 216.643628 
L 306.665785 247.006057 
L 309.945124 179.425166 
L 313.224463 229.865976 
L 316.503802 254.351806 
L 319.78314 223.49966 
L 323.062479 222.03051 
L 326.341818 258.759255 
L 329.621157 226.43796 
L 332.900496 201.462413 
L 336.179835 249.45464 
L 339.459174 237.701441 
L 342.738512 205.380146 
L 346.017851 222.03051 
L 349.29719 274.430186 
L 352.576529 229.865976 
L 355.855868 242.598607 
L 359.135207 254.841522 
L 362.414545 249.944356 
L 365.693884 246.51634 
L 368.973223 257.779822 
L 372.252562 272.961036 
L 375.531901 265.125571 
L 378.81124 269.53302 
L 382.090579 278.837636 
L 385.369917 252.882656 
L 388.649256 264.635854 
L 391.928595 240.150024 
L 395.207934 295.488 
L 398.487273 282.265652 
" style="fill:none;stroke:#1f77b4;stroke-linecap:square;stroke-width:1.5;"/>
   </g>
   <g id="patch_3">
    <path d="M 57.6 307.584 
L 57.6 41.472 
" style="fill:none;stroke:#000000;stroke-linecap:square;stroke-linejoin:miter;stroke-width:0.8;"/>
   </g>
   <g id="patch_4">
    <path d="M 414.72 307.584 
L 414.72 41.472 
" style="fill:none;stroke:#000000;stroke-linecap:square;stroke-linejoin:miter;stroke-width:0.8;"/>
   </g>
   <g id="patch_5">
    <path d="M 57.6 307.584 
L 414.72 307.584 
" style="fill:none;stroke:#000000;stroke-linecap:square;stroke-linejoin:miter;stroke-width:0.8;"/>
   </g>
   <g id="patch_6">
    <path d="M 57.6 41.472 
L 414.72 41.472 
" style="fill:none;stroke:#000000;stroke-linecap:square;stroke-linejoin:miter;stroke-width:0.8;"/>
   </g>
   <g id="text_14">
    <text style="font-family:DejaVu Sans;font-size:12px;font-style:normal;font-weight:normal;text-anchor:middle;" transform="rotate(-0, 236.16, 35.472)" x="236.16" y="35.472">Avg. Bits Consumed by (1/3)*x/(1+(1/3)*x) Algorithm</text>
   </g>
   <g id="legend_1">
    <g id="patch_7">
     <path d="M 280.174688 64.150125 
L 407.72 64.150125 
Q 409.72 64.150125 409.72 62.150125 
L 409.72 48.472 
Q 409.72 46.472 407.72 46.472 
L 280.174688 46.472 
Q 278.174688 46.472 278.174688 48.472 
L 278.174688 62.150125 
Q 278.174688 64.150125 280.174688 64.150125 
z
" style="fill:#ffffff;opacity:0.8;stroke:#cccccc;stroke-linejoin:miter;"/>
    </g>
    <g id="line2d_13">
     <path d="M 282.174688 54.570438 
L 302.174688 54.570438 
" style="fill:none;stroke:#1f77b4;stroke-linecap:square;stroke-width:1.5;"/>
    </g>
    <g id="line2d_14"/>
    <g id="text_15">
     <text style="font-family:DejaVu Sans;font-size:10px;font-style:normal;font-weight:normal;text-anchor:start;" transform="rotate(-0, 310.174688, 58.070438)" x="310.174688" y="58.070438">(1/3)*x/(1+(1/3)*x)</text>
    </g>
   </g>
  </g>
 </g>
 <defs>
  <clipPath id="p5475518e1c">
   <rect height="266.112" width="357.12" x="57.6" y="41.472"/>
  </clipPath>
 </defs>
</svg>

<svg height="460.8" viewBox="0 0 460.8 345.6" width="614.4" xmlns="http://www.w3.org/2000/svg" xmlns:xlink="http://www.w3.org/1999/xlink"><defs><style>*{stroke-linecap:butt;stroke-linejoin:round}</style></defs><g id="figure_1"><path d="M0 345.6h460.8V0H0z" fill="#fff" id="patch_1"/><g id="axes_1"><path d="M57.6 307.584h357.12V41.472H57.6z" fill="#fff" id="patch_2"/><g id="matplotlib.axis_1"><g id="xtick_1"><g id="line2d_1"><defs><path d="M0 0v3.5" id="mfcfb5a2983" stroke="#000" stroke-width=".8"/></defs><use x="73.8" xlink:href="#mfcfb5a2983" y="307.584" stroke="#000" stroke-width=".8"/></g><text x="73.8" y="322.182" font-family="DejaVu Sans" font-size="10" font-weight="400" text-anchor="middle" id="text_1">0.0</text></g><g id="xtick_2"><use x="138.744" xlink:href="#mfcfb5a2983" y="307.584" stroke="#000" stroke-width=".8" id="line2d_2"/><text x="138.744" y="322.182" font-family="DejaVu Sans" font-size="10" font-weight="400" text-anchor="middle" id="text_2">0.2</text></g><g id="xtick_3"><use x="203.688" xlink:href="#mfcfb5a2983" y="307.584" stroke="#000" stroke-width=".8" id="line2d_3"/><text x="203.688" y="322.182" font-family="DejaVu Sans" font-size="10" font-weight="400" text-anchor="middle" id="text_3">0.4</text></g><g id="xtick_4"><use x="268.632" xlink:href="#mfcfb5a2983" y="307.584" stroke="#000" stroke-width=".8" id="line2d_4"/><text x="268.632" y="322.182" font-family="DejaVu Sans" font-size="10" font-weight="400" text-anchor="middle" id="text_4">0.6</text></g><g id="xtick_5"><use x="333.576" xlink:href="#mfcfb5a2983" y="307.584" stroke="#000" stroke-width=".8" id="line2d_5"/><text x="333.576" y="322.182" font-family="DejaVu Sans" font-size="10" font-weight="400" text-anchor="middle" id="text_5">0.8</text></g><g id="xtick_6"><use x="398.52" xlink:href="#mfcfb5a2983" y="307.584" stroke="#000" stroke-width=".8" id="line2d_6"/><text x="398.52" y="322.182" font-family="DejaVu Sans" font-size="10" font-weight="400" text-anchor="middle" id="text_6">1.0</text></g><text x="236.16" y="335.861" font-family="DejaVu Sans" font-size="10" font-weight="400" text-anchor="middle" id="text_7">Probability</text></g><g id="matplotlib.axis_2"><g id="ytick_1"><g id="line2d_7"><defs><path d="M0 0h-3.5" id="md7c9fc3274" stroke="#000" stroke-width=".8"/></defs><use x="57.6" xlink:href="#md7c9fc3274" y="264.146" stroke="#000" stroke-width=".8"/></g><text x="50.6" y="267.945" font-family="DejaVu Sans" font-size="10" font-weight="400" text-anchor="end" id="text_8">2.0</text></g><g id="ytick_2"><use x="57.6" xlink:href="#md7c9fc3274" y="215.174" stroke="#000" stroke-width=".8" id="line2d_8"/><text x="50.6" y="218.974" font-family="DejaVu Sans" font-size="10" font-weight="400" text-anchor="end" id="text_9">2.2</text></g><g id="ytick_3"><use x="57.6" xlink:href="#md7c9fc3274" y="166.203" stroke="#000" stroke-width=".8" id="line2d_9"/><text x="50.6" y="170.002" font-family="DejaVu Sans" font-size="10" font-weight="400" text-anchor="end" id="text_10">2.4</text></g><g id="ytick_4"><use x="57.6" xlink:href="#md7c9fc3274" y="117.231" stroke="#000" stroke-width=".8" id="line2d_10"/><text x="50.6" y="121.03" font-family="DejaVu Sans" font-size="10" font-weight="400" text-anchor="end" id="text_11">2.6</text></g><g id="ytick_5"><use x="57.6" xlink:href="#md7c9fc3274" y="68.259" stroke="#000" stroke-width=".8" id="line2d_11"/><text x="50.6" y="72.059" font-family="DejaVu Sans" font-size="10" font-weight="400" text-anchor="end" id="text_12">2.8</text></g><text transform="rotate(-90 28.617 174.528)" x="28.617" y="174.528" font-family="DejaVu Sans" font-size="10" font-weight="400" text-anchor="middle" id="text_13">Average Bits Consumed Per Call</text></g><path clip-path="url(#p5475518e1c)" d="M73.833 85.4l3.28-6.367 3.278 37.708 3.28-10.284 3.28-52.889 3.278 108.227 3.28-26.934 3.28-52.4 3.278 25.466 3.28 3.428 3.28-10.774 3.278 36.239 3.28-61.704 3.28 57.786 3.278-35.75 3.28 62.685 3.28 15.18 3.278 9.305 3.28-46.523 3.28.49 3.279 12.243 3.279 35.26 3.28-37.709 3.279-21.058 3.279-.979 3.28 31.342 3.279-26.445 3.279 3.428h3.28l3.279 73.947 3.279-47.502 3.28 17.14 3.279 34.28 3.279-60.235 3.28 15.671 3.279-.49 3.279 21.548 3.28 6.366 3.279-.49 3.279-28.403 3.28-5.387 3.279 47.992 3.279-26.934 3.28-10.284 3.279 9.794 3.279-2.449 3.28 13.223 3.279-19.589 3.279 14.202 3.28-37.219 3.279 42.606 3.279-6.856 3.28 26.444 3.279-35.749 3.279 48.972 3.28-8.325 3.279-3.428 3.279-8.815 3.28 18.609 3.279-19.099 3.28-6.856 3.278 19.099 3.28-42.605 3.28 28.403 3.278 10.284 3.28-24.486 3.28 15.182 3.278 9.794 3.28-13.222 3.28 24.975 3.278-7.835 3.28 30.362 3.28-67.58 3.278 50.44 3.28 24.486 3.28-30.852 3.278-1.47 3.28 36.73 3.28-32.322 3.278-24.976 3.28 47.993 3.28-11.754 3.279-32.32 3.279 16.65 3.28 52.4 3.279-44.565 3.279 12.733 3.28 12.243 3.279-4.898 3.279-3.428 3.28 11.264 3.279 15.181 3.279-7.835 3.28 4.407 3.279 9.305 3.279-25.955 3.28 11.753 3.279-24.486 3.279 55.338 3.28-13.222" fill="none" stroke="#1f77b4" stroke-linecap="square" stroke-width="1.5" id="line2d_12"/><path d="M57.6 307.584V41.472" fill="none" stroke="#000" stroke-linecap="square" stroke-width=".8" id="patch_3"/><path d="M414.72 307.584V41.472" fill="none" stroke="#000" stroke-linecap="square" stroke-width=".8" id="patch_4"/><path d="M57.6 307.584h357.12" fill="none" stroke="#000" stroke-linecap="square" stroke-width=".8" id="patch_5"/><path d="M57.6 41.472h357.12" fill="none" stroke="#000" stroke-linecap="square" stroke-width=".8" id="patch_6"/><text x="236.16" y="35.472" font-family="DejaVu Sans" font-size="12" font-weight="400" text-anchor="middle" id="text_14">Avg. Bits Consumed by (1/3)*x/(1+(1/3)*x) Algorithm</text><g id="legend_1"><path d="M280.175 64.15H407.72q2 0 2-2V48.472q0-2-2-2H280.175q-2 0-2 2V62.15q0 2 2 2z" fill="#fff" opacity=".8" stroke="#ccc" id="patch_7"/><path d="M282.175 54.57h20" fill="none" stroke="#1f77b4" stroke-linecap="square" stroke-width="1.5" id="line2d_13"/><text x="310.175" y="58.07" font-family="DejaVu Sans" font-size="10" font-weight="400" id="text_15">(1/3)*x/(1+(1/3)*x)</text></g></g></g><defs><clipPath id="p5475518e1c"><path d="M57.6 41.472h357.12v266.112H57.6z"/></clipPath></defs></svg>
